public/facebook.svg

<svg width="24" height="24" fill="none" xmlns="http://www.w3.org/2000/svg"><g clip-path="url(#a)"><path fill-rule="evenodd" clip-rule="evenodd" d="M0 12.067C0 18.033 4.333 22.994 10 24v-8.667H7V12h3V9.333c0-3 1.933-4.666 4.667-4.666.866 0 1.8.133 2.666.266V8H15.8c-1.467 0-1.8.733-1.8 1.667V12h3.2l-.533 3.333H14V24c5.667-1.006 10-5.966 10-11.933C24 5.43 18.6 0 12 0S0 5.43 0 12.067Z" fill="#F1F5F8"/></g><defs><clipPath id="a"><path fill="#fff" d="M0 0h24v24H0z"/></clipPath></defs></svg>

<svg width="24" height="24" viewBox="0 0 24 24" fill="none" xmlns="http://www.w3.org/2000/svg">
<g clip-path="url(#clip0_1_3561)">
<path fill-rule="evenodd" clip-rule="evenodd" d="M0 12.067C0 18.033 4.333 22.994 10 24V15.333H7V12H10V9.333C10 6.333 11.933 4.667 14.667 4.667C15.533 4.667 16.467 4.8 17.333 4.933V8H15.8C14.333 8 14 8.733 14 9.667V12H17.2L16.667 15.333H14V24C19.667 22.994 24 18.034 24 12.067C24 5.43 18.6 0 12 0C5.4 0 0 5.43 0 12.067Z" fill="#F1F5F8"/>
</g>
<defs>
<clipPath id="clip0_1_3561">
<rect width="24" height="24" fill="white"/>
</clipPath>
</defs>
</svg>
